svg/UnitedNationsOCHA-Humanitarian/other_clusters_agriculture_icon.svg

<svg xmlns="http://www.w3.org/2000/svg" viewBox="0 0 32 32" enable-background="new 0 0 32 32"><path fill="#407cca" d="m7.898 27.313l-.326-3.279c0-.302.384-.035.87-.035.481 0 .87-.267.87.035l-.272 3.197c0 .699-1.142.415-1.142.082m-1.396-10.677c-2.389-1.08-2.195-2.779-2.195-2.779-.301.6.34 5.834 2.83 5.834 1.114-.0001 2.051-1.849-.635-3.055m0-3.698c-2.389-1.077-2.195-2.776-2.195-2.776-.301.598.34 5.834 2.83 5.834 1.114-.0001 2.051-1.849-.635-3.058m0-3.588c-2.389-1.072-2.194-2.775-2.194-2.775-.301.6.34 5.831 2.83 5.831 1.113 0 2.05-1.843-.636-3.056m3.313 10.34c2.49 0 3.128-5.234 2.83-5.834 0 0 .193 1.7-2.198 2.779-2.682 1.207-1.749 3.055-.632 3.055m-3.313.734c-2.389-1.08-2.195-2.78-2.195-2.78-.301.601.34 5.835 2.83 5.835 1.114 0 2.051-1.849-.635-3.055m3.313 3.055c2.49 0 3.128-5.234 2.83-5.835 0 0 .193 1.7-2.198 2.78-2.682 1.206-1.749 3.055-.632 3.055m0-7.484c2.49 0 3.128-5.236 2.83-5.834 0 0 .193 1.7-2.198 2.776-2.682 1.21-1.749 3.058-.632 3.058m0-3.589c2.49 0 3.128-5.231 2.83-5.831 0 0 .193 1.703-2.198 2.775-2.682 1.213-1.749 3.056-.632 3.056m-1.166-2.776c2.641 0-.146-5.631-.146-5.631-.335.529-2.494 5.631.146 5.631m7.142 18.12l1.594-2.789c.126-.27-.338-.195-.773-.396-.441-.205-.678-.609-.804-.336l-1.086 3.109c-.141.306.773 1.043 1.069.412m2.16-10.68c-1.709-1.986-.818-3.446-.818-3.446-.525.417-2.147 5.436.107 6.485 1.012.47 2.64-.811.711-3.039m1.56-3.356c-1.709-1.981-.82-3.441-.82-3.441-.526.416-2.151 5.433.106 6.485 1.014.469 2.639-.81.714-3.044m1.51-3.25c-1.714-1.979-.82-3.444-.82-3.444-.524.417-2.148 5.433.109 6.484 1.012.468 2.638-.809.711-3.04m-1.351 10.776c2.258 1.045 5.04-3.428 5.02-4.102 0 0-.539 1.623-3.163 1.594-2.94-.031-2.871 2.035-1.859 2.508m-3.312-.736c-1.712-1.984-.822-3.441-.822-3.441-.525.415-2.148 5.433.109 6.478 1.014.47 2.638-.809.713-3.037m1.717 4.168c2.256 1.05 5.04-3.429 5.02-4.099 0 0-.541 1.623-3.163 1.594-2.941-.031-2.871 2.036-1.86 2.505m3.154-6.786c2.257 1.048 5.04-3.432 5.02-4.1 0 0-.541 1.622-3.163 1.594-2.942-.032-2.871 2.038-1.859 2.506m1.511-3.257c2.258 1.051 5.04-3.425 5.02-4.097 0 0-.542 1.628-3.161 1.594-2.942-.031-2.871 2.036-1.86 2.503m.112-3.01c2.394 1.112 2.24-5.169 2.24-5.169-.528.344-4.634 4.056-2.24 5.169"/></svg>

<?xml version="1.0" encoding="utf-8"?>
<!-- Generator: Adobe Illustrator 16.0.3, SVG Export Plug-In . SVG Version: 6.00 Build 0)  -->
<!DOCTYPE svg PUBLIC "-//W3C//DTD SVG 1.1//EN" "http://www.w3.org/Graphics/SVG/1.1/DTD/svg11.dtd">
<svg version="1.1" id="Layer_1" xmlns="http://www.w3.org/2000/svg" xmlns:xlink="http://www.w3.org/1999/xlink" x="0px" y="0px"
	 width="32px" height="32px" viewBox="0 0 32 32" enable-background="new 0 0 32 32" xml:space="preserve">
<path fill="#407CCA" d="M7.898,27.313l-0.326-3.279c0-0.302,0.384-0.035,0.87-0.035l0,0c0.481,0,0.87-0.267,0.87,0.035l0,0
	L9.04,27.231C9.04,27.93,7.898,27.646,7.898,27.313z M6.502,16.636c-2.389-1.08-2.195-2.779-2.195-2.779
	c-0.301,0.6,0.34,5.834,2.83,5.834C8.251,19.69,9.188,17.842,6.502,16.636z M6.502,12.938c-2.389-1.077-2.195-2.776-2.195-2.776
	c-0.301,0.598,0.34,5.834,2.83,5.834C8.251,15.995,9.188,14.147,6.502,12.938z M6.502,9.35C4.113,8.278,4.308,6.575,4.308,6.575
	c-0.301,0.6,0.34,5.831,2.83,5.831C8.251,12.406,9.188,10.563,6.502,9.35z M9.815,19.69c2.49,0,3.128-5.234,2.83-5.834
	c0,0,0.193,1.7-2.198,2.779C7.765,17.842,8.698,19.69,9.815,19.69z M6.502,20.424c-2.389-1.08-2.195-2.78-2.195-2.78
	c-0.301,0.601,0.34,5.835,2.83,5.835C8.251,23.479,9.188,21.63,6.502,20.424z M9.815,23.479c2.49,0,3.128-5.234,2.83-5.835
	c0,0,0.193,1.7-2.198,2.78C7.765,21.63,8.698,23.479,9.815,23.479z M9.815,15.995c2.49,0,3.128-5.236,2.83-5.834
	c0,0,0.193,1.7-2.198,2.776C7.765,14.147,8.698,15.995,9.815,15.995z M9.815,12.406c2.49,0,3.128-5.231,2.83-5.831
	c0,0,0.193,1.703-2.198,2.775C7.765,10.563,8.698,12.406,9.815,12.406z M8.649,9.63c2.641,0-0.146-5.631-0.146-5.631
	C8.168,4.528,6.009,9.63,8.649,9.63z M15.791,27.752l1.594-2.789l0,0c0.126-0.27-0.338-0.195-0.773-0.396l0,0
	c-0.441-0.205-0.678-0.609-0.804-0.336l-1.086,3.109C14.581,27.646,15.495,28.383,15.791,27.752z M17.951,17.072
	c-1.709-1.986-0.818-3.446-0.818-3.446c-0.525,0.417-2.147,5.436,0.107,6.485C18.252,20.581,19.88,19.3,17.951,17.072z
	 M19.511,13.716c-1.709-1.981-0.82-3.441-0.82-3.441c-0.526,0.416-2.151,5.433,0.106,6.485
	C19.811,17.229,21.436,15.95,19.511,13.716z M21.021,10.466c-1.714-1.979-0.82-3.444-0.82-3.444
	c-0.524,0.417-2.148,5.433,0.109,6.484C21.322,13.974,22.948,12.697,21.021,10.466z M19.67,21.242
	c2.258,1.045,5.044-3.428,5.022-4.102c0,0-0.539,1.623-3.163,1.594C18.589,18.703,18.658,20.769,19.67,21.242z M16.358,20.506
	c-1.712-1.984-0.822-3.441-0.822-3.441c-0.525,0.415-2.148,5.433,0.109,6.478C16.659,24.013,18.283,22.734,16.358,20.506z
	 M18.075,24.674c2.256,1.05,5.042-3.429,5.023-4.099c0,0-0.541,1.623-3.163,1.594C16.994,22.138,17.064,24.205,18.075,24.674z
	 M21.229,17.888c2.257,1.048,5.041-3.432,5.022-4.1c0,0-0.541,1.622-3.163,1.594C20.146,15.35,20.217,17.42,21.229,17.888z
	 M22.74,14.631c2.258,1.051,5.039-3.425,5.021-4.097c0,0-0.542,1.628-3.161,1.594C21.658,12.097,21.729,14.164,22.74,14.631z
	 M22.852,11.622c2.394,1.112,2.24-5.169,2.24-5.169C24.564,6.797,20.458,10.509,22.852,11.622z"/>
</svg>
